X:1
T:Magdeburg, LM
T:Magdeburg, LM
T:Geistliches Gesänge (Wittenberg, German
T:Public Domain Courtesy of the Cyber Hymnal™
C:Geistliches Gesänge (Wittenberg, German
Z:Public Domain
Z:Courtesy of the Cyber Hymnal™
%%score ( 1 2 ) ( 3 4 )
L:1/8
Q:1/4=112
M:2/4
K:Bb
V:1 treble 
V:2 treble 
V:3 bass 
V:4 bass 
V:1
 [FB]2 | [Fc]2 [FB]2 | [FA]2 B2 | [Ac]2 (dc) | !fermata![FB]2 [FB]2 | [Ac]2 [Bd]2 | e2 ([Bd][Ac]) | %7
 [GB]2 [Fc]2 | !fermata![Fd]2 [FB]2 | [Ac]2 [Ac]2 | [Bd]2 [Ac][Bd] | [GB]2 [FA]2 | %12
 !fermata![EG]2 [Fc]2 | [Fd]2 ([Fc][Gd]) | ([FB][EA]) ([DG][EA]) | [FB]2 [Fc]2 | !fermata![FB]2 |] %17
V:2
 x2 | x4 | x2 B2 | x2 F2 | x4 | x4 | (Ac) x2 | x4 | x4 | x4 | x4 | x4 | x4 | x4 | x4 | x4 | x2 |] %17
V:3
 [B,D]2 | [F,F]2 (FD) | [F,C]2 [E,D]2 | [F,C]2 (B,C) | !fermata![B,,D]2 [B,D]2 | [G,F]2 [D,B,]2 | %6
 ([G,B,]A,) ([G,B,][A,C]) | [B,D]2 [F,F]2 | !fermata![B,,B,]2 [B,D]2 | [F,F]2 [F,F]2 | %10
 [B,F]2 ([A,E][G,D]) | [E,D]2 [F,C]2 | !fermata![C,C]2 [F,A,]2 | B,2 ([A,F][G,D]) | %14
 ([E,B,][F,C]) ([G,D][F,C]) | [G,D]2 [F,D]2 | !fermata![B,,D]2 |] %17
V:4
 x2 | x2 G,2 | x4 | x2 F,2 | x4 | x4 | x4 | x4 | x4 | x4 | x4 | x4 | x4 | B,2 x2 | x4 | x4 | x2 |] %17

